X: 3199
T: Beekeeper, The
R: jig
M: 6/8
K: Amixolydian
|:Acd ~e3|efd edc|Acd ~e3|dcA ~G3|
Acd ~e3|efd efg|age dcA|1 GEF ~G3:|2 GA/B/c ~d3||
|:edB ~A3|cAd AeA|dBG ~G3|AGB GdG|
edB ~A3|cAd AeA|age dcA|1 GEF ~G3:|2 GEG ~A3||

